icons/features/f-5.svg

<svg aria-hidden="true" focusable="false" data-prefix="fas" data-icon="building" class="svg-inline--fa fa-building fa-w-14" role="img" xmlns="http://www.w3.org/2000/svg" viewBox="0 0 448 512"><path fill="currentColor" d="M436 480h-20V24c0-13.255-10.745-24-24-24H56C42.745 0 32 10.745 32 24v456H12c-6.627 0-12 5.373-12 12v20h448v-20c0-6.627-5.373-12-12-12zM128 76c0-6.627 5.373-12 12-12h40c6.627 0 12 5.373 12 12v40c0 6.627-5.373 12-12 12h-40c-6.627 0-12-5.373-12-12V76zm0 96c0-6.627 5.373-12 12-12h40c6.627 0 12 5.373 12 12v40c0 6.627-5.373 12-12 12h-40c-6.627 0-12-5.373-12-12v-40zm52 148h-40c-6.627 0-12-5.373-12-12v-40c0-6.627 5.373-12 12-12h40c6.627 0 12 5.373 12 12v40c0 6.627-5.373 12-12 12zm76 160h-64v-84c0-6.627 5.373-12 12-12h40c6.627 0 12 5.373 12 12v84zm64-172c0 6.627-5.373 12-12 12h-40c-6.627 0-12-5.373-12-12v-40c0-6.627 5.373-12 12-12h40c6.627 0 12 5.373 12 12v40zm0-96c0 6.627-5.373 12-12 12h-40c-6.627 0-12-5.373-12-12v-40c0-6.627 5.373-12 12-12h40c6.627 0 12 5.373 12 12v40zm0-96c0 6.627-5.373 12-12 12h-40c-6.627 0-12-5.373-12-12V76c0-6.627 5.373-12 12-12h40c6.627 0 12 5.373 12 12v40z"></path></svg>

<svg width="448" height="512" viewBox="0 0 448 512" fill="none" xmlns="http://www.w3.org/2000/svg">
<path d="M436 480H416V24C416 10.745 405.255 0 392 0H56C42.745 0 32 10.745 32 24V480H12C5.373 480 0 485.373 0 492V512H448V492C448 485.373 442.627 480 436 480ZM128 76C128 69.373 133.373 64 140 64H180C186.627 64 192 69.373 192 76V116C192 122.627 186.627 128 180 128H140C133.373 128 128 122.627 128 116V76ZM128 172C128 165.373 133.373 160 140 160H180C186.627 160 192 165.373 192 172V212C192 218.627 186.627 224 180 224H140C133.373 224 128 218.627 128 212V172ZM180 320H140C133.373 320 128 314.627 128 308V268C128 261.373 133.373 256 140 256H180C186.627 256 192 261.373 192 268V308C192 314.627 186.627 320 180 320ZM256 480H192V396C192 389.373 197.373 384 204 384H244C250.627 384 256 389.373 256 396V480ZM320 308C320 314.627 314.627 320 308 320H268C261.373 320 256 314.627 256 308V268C256 261.373 261.373 256 268 256H308C314.627 256 320 261.373 320 268V308ZM320 212C320 218.627 314.627 224 308 224H268C261.373 224 256 218.627 256 212V172C256 165.373 261.373 160 268 160H308C314.627 160 320 165.373 320 172V212ZM320 116C320 122.627 314.627 128 308 128H268C261.373 128 256 122.627 256 116V76C256 69.373 261.373 64 268 64H308C314.627 64 320 69.373 320 76V116Z" fill="white"/>
</svg>
